src/lib/packages/icons/src/assets/line/shuffle.svg

<svg width="24" height="24" viewBox="0 0 24 24" fill="none" xmlns="http://www.w3.org/2000/svg">
<path d="M21.692 17.2871C21.654 17.3791 21.599 17.462 21.53 17.531L19.53 19.531C19.384 19.677 19.192 19.751 19 19.751C18.808 19.751 18.616 19.678 18.47 19.531C18.177 19.238 18.177 18.763 18.47 18.47L19.1899 17.75H17.442C16.296 17.75 15.23 17.2371 14.514 16.3421L8.31494 8.59402C7.88594 8.05702 7.24596 7.74905 6.55896 7.74905H3C2.586 7.74905 2.25 7.41305 2.25 6.99905C2.25 6.58505 2.586 6.24905 3 6.24905H6.55896C7.70496 6.24905 8.77106 6.76201 9.48706 7.65701L15.686 15.4051C16.115 15.9421 16.755 16.25 17.442 16.25H19.1899L18.47 15.5301C18.177 15.2371 18.177 14.762 18.47 14.469C18.763 14.176 19.238 14.176 19.531 14.469L21.531 16.469C21.6 16.538 21.655 16.6209 21.693 16.7129C21.768 16.8969 21.768 17.1031 21.692 17.2871ZM14 10.25C14.22 10.25 14.4381 10.154 14.5861 9.96902L15.686 8.59402C16.115 8.05702 16.755 7.75002 17.442 7.75002H19.1899L18.47 8.46999C18.177 8.76299 18.177 9.23803 18.47 9.53103C18.616 9.67703 18.808 9.751 19 9.751C19.192 9.751 19.384 9.67803 19.53 9.53103L21.53 7.53103C21.599 7.46203 21.654 7.37913 21.692 7.28713C21.768 7.10413 21.768 6.89713 21.692 6.71413C21.654 6.62213 21.599 6.53899 21.53 6.46999L19.53 4.46999C19.237 4.17699 18.762 4.17699 18.469 4.46999C18.176 4.76299 18.176 5.23803 18.469 5.53103L19.189 6.251H17.441C16.295 6.251 15.2289 6.76398 14.5129 7.65798L13.413 9.03201C13.154 9.35601 13.207 9.82696 13.53 10.086C13.67 10.196 13.835 10.25 14 10.25ZM9.41394 14.031L8.31396 15.406C7.88496 15.943 7.24498 16.25 6.55798 16.25H3C2.586 16.25 2.25 16.586 2.25 17C2.25 17.414 2.586 17.75 3 17.75H6.55896C7.70496 17.75 8.77106 17.237 9.48706 16.343L10.587 14.969C10.846 14.645 10.793 14.1741 10.47 13.9151C10.146 13.6571 9.67494 13.708 9.41394 14.031Z" fill="currentColor"/>
</svg>

<svg xmlns="http://www.w3.org/2000/svg" width="24" height="24" fill="none"><path fill="currentColor" d="M21.692 17.287a.749.749 0 0 1-.162.244l-2 2a.748.748 0 0 1-1.06 0 .75.75 0 0 1 0-1.061l.72-.72h-1.748a3.73 3.73 0 0 1-2.928-1.408l-6.2-7.748a2.236 2.236 0 0 0-1.755-.845H3a.75.75 0 0 1 0-1.5h3.559a3.73 3.73 0 0 1 2.928 1.408l6.199 7.748a2.236 2.236 0 0 0 1.756.845h1.748l-.72-.72a.75.75 0 0 1 1.061-1.061l2 2a.749.749 0 0 1 .161.818ZM14 10.25c.22 0 .438-.096.586-.281l1.1-1.375a2.236 2.236 0 0 1 1.756-.844h1.748l-.72.72a.75.75 0 0 0 1.06 1.061l2-2a.749.749 0 0 0 .162-.817.75.75 0 0 0-.162-.244l-2-2a.75.75 0 1 0-1.061 1.061l.72.72h-1.748a3.732 3.732 0 0 0-2.928 1.407l-1.1 1.374A.75.75 0 0 0 14 10.25Zm-4.586 3.781-1.1 1.375a2.235 2.235 0 0 1-1.756.844H3a.75.75 0 0 0 0 1.5h3.559a3.732 3.732 0 0 0 2.928-1.407l1.1-1.374a.75.75 0 1 0-1.173-.938Z"/></svg>
